web/ui/src/components/theme/tabs/svgs/executing.svg

<svg height="16" viewBox="0 0 16 16" width="16" xmlns="http://www.w3.org/2000/svg"><g fill="none"><path d="m0 0h16v16h-16z" fill="#000" opacity="0"/><path d="m3.53447531 4.10539128c-.26611307.00350236-.47900352.23465839-.47622966.51624847-.00277386.28194031.21011659.5127461.47622966.5165987h5.71092643c.26611307-.00350236.47900352-.23465839.47622966-.5165987.00277386-.28159008-.21011659-.51274611-.47622966-.51624847zm2.85581336 3.09819128h-2.85581336c-.26611307.00350236-.47900352.23465839-.47622966.51624847-.00277386.28159007.21011659.5127461.47622966.51624846h2.85581336c.26611307-.00350236.47900352-.23465839.47620233-.51624846.00222864-.13397492-.04673835-.26375113-.13690817-.36284492-.08710453-.09575436-.20988418-.15126617-.33929416-.15340355zm.80044009 6.19673284c.26366202 0 .47620233.2308057.47620233.5165987.00280119.28159-.21008927.5127461-.47620233.5162484h-4.2833699c-1.05044631 0-1.90375886-.9256748-1.90375886-2.0653441v-9.29527429c0-1.13966928.8529624-2.06534411 1.90375886-2.06534411h8.56638964c1.0500962 0 1.9034361.92567483 1.9034361 2.06534411v2.58194281c.0027738.28159007-.2101166.5127461-.4762297.51624847-.2657629-.0038526-.4783032-.2346584-.4751519-.51624847v-2.58194281c0-.57053511-.4254307-1.03249694-.9520545-1.03249694h-8.56638964c-.5262736 0-.9520545.46126135-.9520545 1.03249694v9.29527429c0 .5708854.4257809 1.032497.95240465 1.032497zm3.81732184 1.6068846c-1.06060058-.0007005-2.07708245-.4472519-2.82640082-1.2419383-.74931837-.7943362-1.16984704-1.8716634-1.16914762-2.9945213-.00069942-1.1225077.4201794-2.19948466 1.16949777-2.9934706.74931836-.79433618 1.76580024-1.2408876 2.82570057-1.24158807 1.0606006.00070047 2.0770825.44725189 2.8264009 1.24158807.7493183.79398594 1.169847 1.8709629 1.1694977 2.9938208.0006995 1.1225077-.4201794 2.1994847-1.1694977 2.9945213-.7493184.7943362-1.7658003 1.2408876-2.8260508 1.2415881zm0-.8300603c.851912-.0014009 1.6684589-.3607435 2.2700145-.9999249.6015556-.638481.9383987-1.5042654.9373507-2.4061242.0020985-1.87831784-1.4338616-3.40254669-3.2073652-3.40534858-1.77385362.00280189-3.20981372 1.52703074-3.20736703 3.40534858-.00139625.9018588.33579702 1.7676432.9373526 2.4061242.60155559.6388312 1.41810253.9981737 2.27001443.9999249zm-.3399944-1.8860231v-3.0141345c0-.2164461.2177925-.34323168.3764099-.21819728l1.911112 1.50706728c.0637271.0525355.1011992.1330898.1011992.2185475.0005527.0844784-.0366969.1647778-.1015493.2188978l-1.9107619 1.5070672c-.1575669.1250344-.3764099-.0017511-.3764099-.2181972zm-.95520585-3.0141345c0-.14815.10679537-.26758061.23880146-.26758061.13235619 0 .23880149.11943061.23880149.26758061v3.1079979c0 .14815-.1071456.2675806-.23880149.2675806-.0659289-.0023313-.12798716-.0317214-.1715729-.0812548-.04528999-.051293-.06933136-.1179243-.06722856-.1863258z" fill="#595959"/></g></svg>

<?xml version="1.0" encoding="UTF-8"?>
<svg width="16px" height="16px" viewBox="0 0 16 16" version="1.1" xmlns="http://www.w3.org/2000/svg" xmlns:xlink="http://www.w3.org/1999/xlink">
    <title>executing</title>
    <g id="页面-1" stroke="none" stroke-width="1" fill="none" fill-rule="evenodd">
        <g id="系统设计规范" transform="translate(-426.000000, -5388.000000)" fill-rule="nonzero">
            <g id="executing" transform="translate(426.000000, 5388.000000)">
                <rect id="矩形" fill="#000000" opacity="0" x="0" y="0" width="16" height="16"></rect>
                <path d="M3.53447531,4.10539128 C3.26836224,4.10889364 3.05547179,4.34004967 3.05824565,4.62163975 C3.05547179,4.90358006 3.26836224,5.13438585 3.53447531,5.13823845 L9.24540174,5.13823845 C9.51151481,5.13473609 9.72440526,4.90358006 9.7216314,4.62163975 C9.72440526,4.34004967 9.51151481,4.10889364 9.24540174,4.10539128 L3.53447531,4.10539128 L3.53447531,4.10539128 Z M6.39028867,7.20358256 L3.53447531,7.20358256 C3.26836224,7.20708492 3.05547179,7.43824095 3.05824565,7.71983103 C3.05547179,8.0014211 3.26836224,8.23257713 3.53447531,8.23607949 L6.39028867,8.23607949 C6.65640174,8.23257713 6.86929219,8.0014211 6.866491,7.71983103 C6.86871964,7.58585611 6.81975265,7.4560799 6.72958283,7.35698611 C6.6424783,7.26123175 6.51969865,7.20571994 6.39028867,7.20358256 L6.39028867,7.20358256 Z M7.19072876,13.4003154 C7.45439078,13.4003154 7.66693109,13.6311211 7.66693109,13.9169141 C7.66973228,14.1985041 7.45684182,14.4296602 7.19072876,14.4331625 L2.90735886,14.4331625 C1.85691255,14.4331625 1.0036,13.5074877 1.0036,12.3678184 L1.0036,3.07254411 C1.0036,1.93287483 1.8565624,1.0072 2.90735886,1.0072 L11.4737485,1.0072 C12.5238447,1.0072 13.3771846,1.93287483 13.3771846,3.07254411 L13.3771846,5.65448692 C13.3799584,5.93607699 13.167068,6.16723302 12.9009549,6.17073539 C12.635192,6.16688279 12.4226517,5.93607699 12.425803,5.65448692 L12.425803,3.07254411 C12.425803,2.502009 12.0003723,2.04004717 11.4737485,2.04004717 L2.90735886,2.04004717 C2.38108526,2.04004717 1.95530436,2.50130852 1.95530436,3.07254411 L1.95530436,12.3678184 C1.95530436,12.9387038 2.38108526,13.4003154 2.90770901,13.4003154 L7.19072876,13.4003154 Z M11.0080506,15.0072 C9.94745002,15.0064995 8.93096815,14.5599481 8.18164978,13.7652617 C7.43233141,12.9709255 7.01180274,11.8935983 7.01250216,10.7707404 C7.01180274,9.6482327 7.43268156,8.57125574 8.18199993,7.7772698 C8.93131829,6.98293362 9.94780017,6.5363822 11.0077005,6.53568173 C12.0683011,6.5363822 13.084783,6.98293362 13.8341014,7.7772698 C14.5834197,8.57125574 15.0039484,9.6482327 15.0035991,10.7710906 C15.0042986,11.8935983 14.5834197,12.9705753 13.8341014,13.7656119 C13.084783,14.5599481 12.0683011,15.0064995 11.0080506,15.0072 Z M11.0080506,14.1771397 C11.8599626,14.1757388 12.6765095,13.8163962 13.2780651,13.1772148 C13.8796207,12.5387338 14.2164638,11.6729494 14.2154158,10.7710906 C14.2175143,8.89277276 12.7815542,7.36854391 11.0080506,7.36574202 C9.23419698,7.36854391 7.79823688,8.89277276 7.80068357,10.7710906 C7.79928732,11.6729494 8.13648059,12.5387338 8.73803617,13.1772148 C9.33959176,13.816046 10.1561387,14.1753885 11.0080506,14.1771397 Z M10.6680562,12.2911166 L10.6680562,9.2769821 C10.6680562,9.060536 10.8858487,8.93375042 11.0444661,9.05878482 L12.9555781,10.5658521 C13.0193052,10.6183876 13.0567773,10.6989419 13.0567773,10.7843996 C13.05733,10.868878 13.0200804,10.9491774 12.955228,11.0032974 L11.0444661,12.5103646 C10.8868992,12.635399 10.6680562,12.5086135 10.6680562,12.2921674 L10.6680562,12.2911166 Z M9.71285035,9.2769821 C9.71285035,9.1288321 9.81964572,9.00940149 9.95165181,9.00940149 C10.084008,9.00940149 10.1904533,9.1288321 10.1904533,9.2769821 L10.1904533,12.38498 C10.1904533,12.53313 10.0833077,12.6525606 9.95165181,12.6525606 C9.88572291,12.6502293 9.82366465,12.6208392 9.78007891,12.5713058 C9.73478892,12.5200128 9.71074755,12.4533815 9.71285035,12.38498 L9.71285035,9.2769821 L9.71285035,9.2769821 Z" id="形状" fill="#595959"></path>
            </g>
        </g>
    </g>
</svg>
